public/logo-with-name.svg

<?xml version="1.0" encoding="UTF-8" standalone="no"?>
<!-- Created with Inkscape (http://www.inkscape.org/) -->

<svg
   width="73.819016mm"
   height="14.77256mm"
   viewBox="0 0 73.819016 14.77256"
   version="1.1"
   id="svg5"
   inkscape:version="1.1.2 (0a00cf5339, 2022-02-04)"
   xmlns:inkscape="http://www.inkscape.org/namespaces/inkscape"
   xmlns:sodipodi="http://sodipodi.sourceforge.net/DTD/sodipodi-0.dtd"
   xmlns="http://www.w3.org/2000/svg"
   xmlns:svg="http://www.w3.org/2000/svg">
  <sodipodi:namedview
     id="namedview7"
     pagecolor="#ffffff"
     bordercolor="#666666"
     borderopacity="1.0"
     inkscape:pageshadow="2"
     inkscape:pageopacity="0.0"
     inkscape:pagecheckerboard="0"
     inkscape:document-units="mm"
     showgrid="false"
     inkscape:zoom="2.1703346"
     inkscape:cx="199.73879"
     inkscape:cy="29.258161"
     inkscape:window-width="1440"
     inkscape:window-height="836"
     inkscape:window-x="0"
     inkscape:window-y="0"
     inkscape:window-maximized="1"
     inkscape:current-layer="g64"
     inkscape:snap-global="true"
     fit-margin-top="0"
     fit-margin-left="0"
     fit-margin-right="0"
     fit-margin-bottom="0"
     inkscape:snap-nodes="true" />
  <defs
     id="defs2" />
  <g
     inkscape:label="Layer 1"
     inkscape:groupmode="layer"
     id="layer1"
     transform="translate(-50.92054,-118.36223)">
    <g
       style="fill:none"
       id="g64"
       transform="matrix(0.26458333,0,0,0.26458333,50.92054,118.36223)">
      <path
         fill-rule="evenodd"
         clip-rule="evenodd"
         d="m 67.4385,43.4948 c 0.021,0.0094 0.0421,0.0187 0.0628,0.0299 l 0.0022,-0.0109 c -0.0198,-0.0066 -0.0392,-0.014 -0.0589,-0.0215 -0.0194,-0.0075 -0.039,-0.0151 -0.0591,-0.0222 0.0175,0.009 0.0352,0.0169 0.053,0.0247 z M 47.2746,10.1639 C 41.1605,6.90455 33.781,6.03879 26.6703,8.34983 12.786,12.8624 5.19066,27.7744 9.70217,41.6565 10.6832,44.6755 12.156,47.3972 14.003,49.7617 8.17877,46.657 3.50263,41.3801 1.30119,34.6067 -3.21032,20.7256 4.38612,5.8126 18.2694,1.30109 c 10.864,-3.53038 22.3579,0.3542 29.0052,8.86281 z"
         fill="#e78200"
         id="path25"
         style="fill:#4f46e5;fill-opacity:1" />
      <path
         fill-rule="evenodd"
         clip-rule="evenodd"
         d="m 71.9295,50.8833 c 0.0165,0.0074 0.0331,0.0149 0.0494,0.0236 L 71.98,50.8982 c -0.0157,-0.005 -0.0311,-0.0112 -0.0467,-0.0175 -0.015,-0.006 -0.0302,-0.0121 -0.0462,-0.0175 0.0138,0.0072 0.028,0.0136 0.0424,0.0201 z M 55.992,24.534 C 51.1604,21.9593 45.329,21.2754 39.7096,23.1 28.7342,26.6637 22.7305,38.4503 26.2942,49.4235 c 0.7756,2.3876 1.9403,4.54 3.401,6.4098 C 25.0902,53.379 21.3934,49.2069 19.6543,43.8516 16.0895,32.8795 22.0943,21.0919 33.0686,17.5281 41.6555,14.7397 50.739,17.81 55.992,24.534 Z"
         fill="#e78200"
         id="path27"
         style="fill:#4f46e5;fill-opacity:1" />
      <path
         fill-rule="evenodd"
         clip-rule="evenodd"
         d="m 67.8456,50.9462 c 0.0101,0.0044 0.0204,0.0088 0.0307,0.0143 V 50.955 l -0.0547,-0.0197 c 0.0078,0.0039 0.0159,0.0074 0.024,0.0109 z M 58.245,35.0768 c -2.9114,-1.5517 -6.4253,-1.9638 -9.8108,-0.8637 -6.6104,2.1481 -10.2266,9.2494 -8.0785,15.8587 0.4671,1.4373 1.1683,2.733 2.0476,3.8587 -2.7728,-1.478 -4.9991,-3.9902 -6.0475,-7.2148 -2.1481,-6.6093 1.4681,-13.7105 8.0785,-15.8586 5.1729,-1.6809 10.6457,0.1686 13.8107,4.2197 z"
         fill="#e78200"
         id="path29"
         style="fill:#4f46e5;fill-opacity:1" />
      <path
         d="m 54.776,51.9328 c 2.1627,0 3.916,-1.7532 3.916,-3.916 0,-2.1627 -1.7533,-3.916 -3.916,-3.916 -2.1628,0 -3.916,1.7533 -3.916,3.916 0,2.1628 1.7532,3.916 3.916,3.916 z"
         fill="#e78200"
         id="path31"
         style="fill:#4f46e5;fill-opacity:1" />
      <path
         d="m 85.008,45.432 c -2.016,0 -3.824,-0.336 -5.424,-1.008 -1.6,-0.704 -2.864,-1.664 -3.792,-2.88 -0.928,-1.248 -1.44,-2.672 -1.536,-4.272 h 4.512 c 0.128,1.312 0.736,2.384 1.824,3.216 1.12,0.832 2.576,1.248 4.368,1.248 1.664,0 2.976,-0.368 3.936,-1.104 0.96,-0.736 1.44,-1.664 1.44,-2.784 0,-1.152 -0.512,-2 -1.536,-2.544 -1.024,-0.576 -2.608,-1.136 -4.752,-1.68 -1.952,-0.512 -3.552,-1.024 -4.8,-1.536 -1.216,-0.544 -2.272,-1.328 -3.168,-2.352 -0.864,-1.056 -1.296,-2.432 -1.296,-4.128 0,-1.344 0.4,-2.576 1.2,-3.696 0.8,-1.12 1.936,-2 3.408,-2.64 1.472,-0.672 3.152,-1.008 5.04,-1.008 2.912,0 5.264,0.736 7.056,2.208 1.792,1.472 2.752,3.488 2.88,6.048 H 90 c -0.096,-1.376 -0.656,-2.48 -1.68,-3.312 -0.992,-0.832 -2.336,-1.248 -4.032,-1.248 -1.568,0 -2.816,0.336 -3.744,1.008 -0.928,0.672 -1.392,1.552 -1.392,2.64 0,0.864 0.272,1.584 0.816,2.16 0.576,0.544 1.28,0.992 2.112,1.344 0.864,0.32 2.048,0.688 3.552,1.104 1.888,0.512 3.424,1.024 4.608,1.536 1.184,0.48 2.192,1.216 3.024,2.208 0.864,0.992 1.312,2.288 1.344,3.888 0,1.44 -0.4,2.736 -1.2,3.888 -0.8,1.152 -1.936,2.064 -3.408,2.736 -1.44,0.64 -3.104,0.96 -4.992,0.96 z"
         fill="#111827"
         id="path33"
         style="fill:#0f172a;fill-opacity:1" />
      <path
         d="M 124.102,18.696 V 45 h -4.368 v -3.888 c -0.832,1.344 -2,2.4 -3.504,3.168 -1.472,0.736 -3.104,1.104 -4.896,1.104 -2.048,0 -3.888,-0.416 -5.52,-1.248 -1.632,-0.864 -2.928,-2.144 -3.888,-3.84 -0.928,-1.696 -1.392,-3.76 -1.392,-6.192 V 18.696 h 4.32 v 14.832 c 0,2.592 0.656,4.592 1.968,6 1.312,1.376 3.104,2.064 5.376,2.064 2.336,0 4.176,-0.72 5.52,-2.16 1.344,-1.44 2.016,-3.536 2.016,-6.288 V 18.696 Z"
         fill="#111827"
         id="path35"
         style="fill:#0f172a;fill-opacity:1" />
      <path
         d="m 163.109,18.216 c 2.048,0 3.872,0.432 5.472,1.296 1.6,0.832 2.864,2.096 3.792,3.792 0.928,1.696 1.392,3.76 1.392,6.192 V 45 h -4.32 V 30.12 c 0,-2.624 -0.656,-4.624 -1.968,-6 -1.28,-1.408 -3.024,-2.112 -5.232,-2.112 -2.272,0 -4.08,0.736 -5.424,2.208 -1.344,1.44 -2.016,3.536 -2.016,6.288 V 45 h -4.32 V 30.12 c 0,-2.624 -0.656,-4.624 -1.968,-6 -1.28,-1.408 -3.024,-2.112 -5.232,-2.112 -2.272,0 -4.08,0.736 -5.424,2.208 -1.344,1.44 -2.016,3.536 -2.016,6.288 V 45 h -4.368 V 18.696 h 4.368 v 3.792 c 0.864,-1.376 2.016,-2.432 3.456,-3.168 1.472,-0.736 3.088,-1.104 4.848,-1.104 2.208,0 4.16,0.496 5.856,1.488 1.696,0.992 2.96,2.448 3.792,4.368 0.736,-1.856 1.952,-3.296 3.648,-4.32 1.696,-1.024 3.584,-1.536 5.664,-1.536 z"
         fill="#111827"
         id="path37"
         style="fill:#0f172a;fill-opacity:1" />
      <path
         d="m 212.562,18.216 c 2.048,0 3.872,0.432 5.472,1.296 1.6,0.832 2.864,2.096 3.792,3.792 0.928,1.696 1.392,3.76 1.392,6.192 V 45 h -4.32 V 30.12 c 0,-2.624 -0.656,-4.624 -1.968,-6 -1.28,-1.408 -3.024,-2.112 -5.232,-2.112 -2.272,0 -4.08,0.736 -5.424,2.208 -1.344,1.44 -2.016,3.536 -2.016,6.288 V 45 h -4.32 V 30.12 c 0,-2.624 -0.656,-4.624 -1.968,-6 -1.28,-1.408 -3.024,-2.112 -5.232,-2.112 -2.272,0 -4.08,0.736 -5.424,2.208 -1.344,1.44 -2.016,3.536 -2.016,6.288 V 45 H 180.93 V 18.696 h 4.368 v 3.792 c 0.864,-1.376 2.016,-2.432 3.456,-3.168 1.472,-0.736 3.088,-1.104 4.848,-1.104 2.208,0 4.16,0.496 5.856,1.488 1.696,0.992 2.96,2.448 3.792,4.368 0.736,-1.856 1.952,-3.296 3.648,-4.32 1.696,-1.024 3.584,-1.536 5.664,-1.536 z"
         fill="#111827"
         id="path39"
         style="fill:#0f172a;fill-opacity:1" />
      <path
         d="m 228.751,31.752 c 0,-2.688 0.544,-5.04 1.632,-7.056 1.088,-2.048 2.576,-3.632 4.464,-4.752 1.92,-1.12 4.048,-1.68 6.384,-1.68 2.304,0 4.304,0.496 6,1.488 1.696,0.992 2.96,2.24 3.792,3.744 v -4.8 h 4.416 V 45 h -4.416 v -4.896 c -0.864,1.536 -2.16,2.816 -3.888,3.84 -1.696,0.992 -3.68,1.488 -5.952,1.488 -2.336,0 -4.448,-0.576 -6.336,-1.728 -1.888,-1.152 -3.376,-2.768 -4.464,-4.848 -1.088,-2.08 -1.632,-4.448 -1.632,-7.104 z m 22.272,0.048 c 0,-1.984 -0.4,-3.712 -1.2,-5.184 -0.8,-1.472 -1.888,-2.592 -3.264,-3.36 -1.344,-0.8 -2.832,-1.2 -4.464,-1.2 -1.632,0 -3.12,0.384 -4.464,1.152 -1.344,0.768 -2.416,1.888 -3.216,3.36 -0.8,1.472 -1.2,3.2 -1.2,5.184 0,2.016 0.4,3.776 1.2,5.28 0.8,1.472 1.872,2.608 3.216,3.408 1.344,0.768 2.832,1.152 4.464,1.152 1.632,0 3.12,-0.384 4.464,-1.152 1.376,-0.8 2.464,-1.936 3.264,-3.408 0.8,-1.504 1.2,-3.248 1.2,-5.232 z"
         fill="#111827"
         id="path41"
         style="fill:#0f172a;fill-opacity:1" />
      <path
         d="m 265.077,14.424 c -0.832,0 -1.536,-0.288 -2.112,-0.864 -0.576,-0.576 -0.864,-1.28 -0.864,-2.112 0,-0.832 0.288,-1.53601 0.864,-2.11201 0.576,-0.57601 1.28,-0.86401 2.112,-0.86401 0.8,0 1.472,0.288 2.016,0.86401 0.576,0.576 0.864,1.28001 0.864,2.11201 0,0.832 -0.288,1.536 -0.864,2.112 -0.544,0.576 -1.216,0.864 -2.016,0.864 z m 2.112,4.272 V 45 h -4.368 V 18.696 Z"
         fill="#111827"
         id="path43"
         style="fill:#0f172a;fill-opacity:1" />
      <path
         d="M 279.001,9.47999 V 45 h -4.368 V 9.47999 Z"
         fill="#111827"
         id="path45"
         style="fill:#0f172a;fill-opacity:1" />
    </g>
  </g>
</svg>

<svg width="280" height="56" viewBox="0 0 280 56" fill="none" xmlns="http://www.w3.org/2000/svg">
<path fill-rule="evenodd" clip-rule="evenodd" d="M67.4385 43.4948C67.4595 43.5042 67.4806 43.5135 67.5013 43.5247L67.5035 43.5138C67.4837 43.5072 67.4643 43.4998 67.4446 43.4923C67.4252 43.4848 67.4056 43.4772 67.3855 43.4701C67.403 43.4791 67.4207 43.487 67.4385 43.4948ZM47.2746 10.1639C41.1605 6.90455 33.781 6.03879 26.6703 8.34983C12.786 12.8624 5.19066 27.7744 9.70217 41.6565C10.6832 44.6755 12.156 47.3972 14.003 49.7617C8.17877 46.657 3.50263 41.3801 1.30119 34.6067C-3.21032 20.7256 4.38612 5.8126 18.2694 1.30109C29.1334 -2.22929 40.6273 1.65529 47.2746 10.1639Z" fill="#E78200"/>
<path fill-rule="evenodd" clip-rule="evenodd" d="M71.9295 50.8833C71.946 50.8907 71.9626 50.8982 71.9789 50.9069L71.98 50.8982C71.9643 50.8932 71.9489 50.887 71.9333 50.8807C71.9183 50.8747 71.9031 50.8686 71.8871 50.8632C71.9009 50.8704 71.9151 50.8768 71.9295 50.8833ZM55.992 24.534C51.1604 21.9593 45.329 21.2754 39.7096 23.1C28.7342 26.6637 22.7305 38.4503 26.2942 49.4235C27.0698 51.8111 28.2345 53.9635 29.6952 55.8333C25.0902 53.379 21.3934 49.2069 19.6543 43.8516C16.0895 32.8795 22.0943 21.0919 33.0686 17.5281C41.6555 14.7397 50.739 17.81 55.992 24.534Z" fill="#E78200"/>
<path fill-rule="evenodd" clip-rule="evenodd" d="M67.8456 50.9462C67.8557 50.9506 67.866 50.955 67.8763 50.9605V50.955L67.8216 50.9353C67.8294 50.9392 67.8375 50.9427 67.8456 50.9462ZM58.245 35.0768C55.3336 33.5251 51.8197 33.113 48.4342 34.2131C41.8238 36.3612 38.2076 43.4625 40.3557 50.0718C40.8228 51.5091 41.524 52.8048 42.4033 53.9305C39.6305 52.4525 37.4042 49.9403 36.3558 46.7157C34.2077 40.1064 37.8239 33.0052 44.4343 30.8571C49.6072 29.1762 55.08 31.0257 58.245 35.0768Z" fill="#E78200"/>
<path d="M54.776 51.9328C56.9387 51.9328 58.692 50.1796 58.692 48.0168C58.692 45.8541 56.9387 44.1008 54.776 44.1008C52.6132 44.1008 50.86 45.8541 50.86 48.0168C50.86 50.1796 52.6132 51.9328 54.776 51.9328Z" fill="#E78200"/>
<path d="M85.008 45.432C82.992 45.432 81.184 45.096 79.584 44.424C77.984 43.72 76.72 42.76 75.792 41.544C74.864 40.296 74.352 38.872 74.256 37.272H78.768C78.896 38.584 79.504 39.656 80.592 40.488C81.712 41.32 83.168 41.736 84.96 41.736C86.624 41.736 87.936 41.368 88.896 40.632C89.856 39.896 90.336 38.968 90.336 37.848C90.336 36.696 89.824 35.848 88.8 35.304C87.776 34.728 86.192 34.168 84.048 33.624C82.096 33.112 80.496 32.6 79.248 32.088C78.032 31.544 76.976 30.76 76.08 29.736C75.216 28.68 74.784 27.304 74.784 25.608C74.784 24.264 75.184 23.032 75.984 21.912C76.784 20.792 77.92 19.912 79.392 19.272C80.864 18.6 82.544 18.264 84.432 18.264C87.344 18.264 89.696 19 91.488 20.472C93.28 21.944 94.24 23.96 94.368 26.52H90C89.904 25.144 89.344 24.04 88.32 23.208C87.328 22.376 85.984 21.96 84.288 21.96C82.72 21.96 81.472 22.296 80.544 22.968C79.616 23.64 79.152 24.52 79.152 25.608C79.152 26.472 79.424 27.192 79.968 27.768C80.544 28.312 81.248 28.76 82.08 29.112C82.944 29.432 84.128 29.8 85.632 30.216C87.52 30.728 89.056 31.24 90.24 31.752C91.424 32.232 92.432 32.968 93.264 33.96C94.128 34.952 94.576 36.248 94.608 37.848C94.608 39.288 94.208 40.584 93.408 41.736C92.608 42.888 91.472 43.8 90 44.472C88.56 45.112 86.896 45.432 85.008 45.432Z" fill="#111827"/>
<path d="M124.102 18.696V45H119.734V41.112C118.902 42.456 117.734 43.512 116.23 44.28C114.758 45.016 113.126 45.384 111.334 45.384C109.286 45.384 107.446 44.968 105.814 44.136C104.182 43.272 102.886 41.992 101.926 40.296C100.998 38.6 100.534 36.536 100.534 34.104V18.696H104.854V33.528C104.854 36.12 105.51 38.12 106.822 39.528C108.134 40.904 109.926 41.592 112.198 41.592C114.534 41.592 116.374 40.872 117.718 39.432C119.062 37.992 119.734 35.896 119.734 33.144V18.696H124.102Z" fill="#111827"/>
<path d="M163.109 18.216C165.157 18.216 166.981 18.648 168.581 19.512C170.181 20.344 171.445 21.608 172.373 23.304C173.301 25 173.765 27.064 173.765 29.496V45H169.445V30.12C169.445 27.496 168.789 25.496 167.477 24.12C166.197 22.712 164.453 22.008 162.245 22.008C159.973 22.008 158.165 22.744 156.821 24.216C155.477 25.656 154.805 27.752 154.805 30.504V45H150.485V30.12C150.485 27.496 149.829 25.496 148.517 24.12C147.237 22.712 145.493 22.008 143.285 22.008C141.013 22.008 139.205 22.744 137.861 24.216C136.517 25.656 135.845 27.752 135.845 30.504V45H131.477V18.696H135.845V22.488C136.709 21.112 137.861 20.056 139.301 19.32C140.773 18.584 142.389 18.216 144.149 18.216C146.357 18.216 148.309 18.712 150.005 19.704C151.701 20.696 152.965 22.152 153.797 24.072C154.533 22.216 155.749 20.776 157.445 19.752C159.141 18.728 161.029 18.216 163.109 18.216Z" fill="#111827"/>
<path d="M212.562 18.216C214.61 18.216 216.434 18.648 218.034 19.512C219.634 20.344 220.898 21.608 221.826 23.304C222.754 25 223.218 27.064 223.218 29.496V45H218.898V30.12C218.898 27.496 218.242 25.496 216.93 24.12C215.65 22.712 213.906 22.008 211.698 22.008C209.426 22.008 207.618 22.744 206.274 24.216C204.93 25.656 204.258 27.752 204.258 30.504V45H199.938V30.12C199.938 27.496 199.282 25.496 197.97 24.12C196.69 22.712 194.946 22.008 192.738 22.008C190.466 22.008 188.658 22.744 187.314 24.216C185.97 25.656 185.298 27.752 185.298 30.504V45H180.93V18.696H185.298V22.488C186.162 21.112 187.314 20.056 188.754 19.32C190.226 18.584 191.842 18.216 193.602 18.216C195.81 18.216 197.762 18.712 199.458 19.704C201.154 20.696 202.418 22.152 203.25 24.072C203.986 22.216 205.202 20.776 206.898 19.752C208.594 18.728 210.482 18.216 212.562 18.216Z" fill="#111827"/>
<path d="M228.751 31.752C228.751 29.064 229.295 26.712 230.383 24.696C231.471 22.648 232.959 21.064 234.847 19.944C236.767 18.824 238.895 18.264 241.231 18.264C243.535 18.264 245.535 18.76 247.231 19.752C248.927 20.744 250.191 21.992 251.023 23.496V18.696H255.439V45H251.023V40.104C250.159 41.64 248.863 42.92 247.135 43.944C245.439 44.936 243.455 45.432 241.183 45.432C238.847 45.432 236.735 44.856 234.847 43.704C232.959 42.552 231.471 40.936 230.383 38.856C229.295 36.776 228.751 34.408 228.751 31.752ZM251.023 31.8C251.023 29.816 250.623 28.088 249.823 26.616C249.023 25.144 247.935 24.024 246.559 23.256C245.215 22.456 243.727 22.056 242.095 22.056C240.463 22.056 238.975 22.44 237.631 23.208C236.287 23.976 235.215 25.096 234.415 26.568C233.615 28.04 233.215 29.768 233.215 31.752C233.215 33.768 233.615 35.528 234.415 37.032C235.215 38.504 236.287 39.64 237.631 40.44C238.975 41.208 240.463 41.592 242.095 41.592C243.727 41.592 245.215 41.208 246.559 40.44C247.935 39.64 249.023 38.504 249.823 37.032C250.623 35.528 251.023 33.784 251.023 31.8Z" fill="#111827"/>
<path d="M265.077 14.424C264.245 14.424 263.541 14.136 262.965 13.56C262.389 12.984 262.101 12.28 262.101 11.448C262.101 10.616 262.389 9.91199 262.965 9.33599C263.541 8.75998 264.245 8.47198 265.077 8.47198C265.877 8.47198 266.549 8.75998 267.093 9.33599C267.669 9.91199 267.957 10.616 267.957 11.448C267.957 12.28 267.669 12.984 267.093 13.56C266.549 14.136 265.877 14.424 265.077 14.424ZM267.189 18.696V45H262.821V18.696H267.189Z" fill="#111827"/>
<path d="M279.001 9.47999V45H274.633V9.47999H279.001Z" fill="#111827"/>
</svg>
